source/img/icons/icon-facebook.svg

<svg width="24" height="24" viewBox="0 0 24 24" fill="none" xmlns="http://www.w3.org/2000/svg">
<path d="M15.12 5.32003H17V2.14003C16.0897 2.04538 15.1751 1.99865 14.26 2.00003C11.54 2.00003 9.67999 3.66003 9.67999 6.70003V9.32003H6.60999V12.88H9.67999V22H13.36V12.88H16.42L16.88 9.32003H13.36V7.05003C13.36 6.00003 13.64 5.32003 15.12 5.32003Z" fill="white"/>
</svg>

<svg width="24" height="24" fill="none" xmlns="http://www.w3.org/2000/svg"><path d="M15.12 5.32H17V2.14A26.113 26.113 0 0014.26 2c-2.72 0-4.58 1.66-4.58 4.7v2.62H6.61v3.56h3.07V22h3.68v-9.12h3.06l.46-3.56h-3.52V7.05c0-1.05.28-1.73 1.76-1.73z" fill="#fff"/></svg>
